X:91
T:???
M:4/4
L:1/8
K:G
B2 GB EBGB|A2 FA DAFA|B2 GB EBGB|(3Bcd ef {a}gfed|B2 GB EBGB|
A2 FA DAFA| BAGF EFGA|(3Bcd ed (3Bcd ef|| g2 {a}gf {a}gfed|B2 BA (3Bcd
ef| g2{a}gf {a}gfed|B2 Ac B ~E3|~g3 f {a}ge fd|~B3A ~G3F|~E3F ~G3A|
(3Bcd ef {a}gfed||


